icons/svg/add-square-multiple.svg

<svg width="24" height="24" viewBox="0 0 24 24" fill="none" xmlns="http://www.w3.org/2000/svg">
<path d="M10.6302 7.6603V13.5997M7.66052 10.63H13.5999" stroke="currentColor" stroke-width="1.5" stroke-linecap="round" stroke-linejoin="round"/>
<rect x="3.63" y="3.63" width="14" height="14" rx="3" stroke="currentColor" stroke-width="1.5" stroke-linecap="round" stroke-linejoin="round"/>
<path d="M20.9713 7.92754C21.1976 8.37176 21.292 8.8519 21.3366 9.39854C21.38 9.92944 21.38 10.5851 21.38 11.3979V11.8638C21.38 13.3753 21.38 14.5558 21.3026 15.5035C21.2239 16.467 21.0614 17.2558 20.6988 17.9674C20.0996 19.1435 19.1435 20.0996 17.9675 20.6988C17.2558 21.0614 16.467 21.2239 15.5035 21.3026C14.5558 21.38 13.3754 21.38 11.8638 21.38H11.3979C10.5851 21.38 9.92945 21.38 9.39854 21.3366C8.8519 21.292 8.37176 21.1976 7.92754 20.9713C7.41487 20.7101 6.97185 20.3358 6.63 19.88H11.43H11.83C13.3825 19.88 14.5018 19.8794 15.3813 19.8076C16.2521 19.7364 16.8216 19.5992 17.2865 19.3623C18.1802 18.9069 18.9069 18.1802 19.3623 17.2865C19.5992 16.8216 19.7364 16.2521 19.8076 15.3813C19.8794 14.5018 19.88 13.3825 19.88 11.83V11.43V6.63C20.3358 6.97184 20.7101 7.41487 20.9713 7.92754Z" fill="currentColor"/>
</svg>

<svg xmlns="http://www.w3.org/2000/svg" width="24" height="24" fill="none" viewBox="0 0 24 24"><path stroke="currentColor" stroke-linecap="round" stroke-linejoin="round" stroke-width="1.5" d="M10.63 7.66v5.94m-2.97-2.97h5.94"/><rect width="14" height="14" x="3.63" y="3.63" stroke="currentColor" stroke-linecap="round" stroke-linejoin="round" stroke-width="1.5" rx="3"/><path fill="currentColor" d="M20.971 7.928c.227.444.321.924.366 1.47.043.531.043 1.187.043 2v.466c0 1.511 0 2.692-.077 3.64-.08.963-.242 1.752-.604 2.463a6.25 6.25 0 0 1-2.732 2.732c-.711.362-1.5.525-2.463.604-.948.077-2.129.077-3.64.077h-.466c-.813 0-1.469 0-2-.043-.546-.045-1.026-.14-1.47-.366A3.75 3.75 0 0 1 6.63 19.88h5.2c1.553 0 2.672 0 3.551-.072.871-.072 1.44-.209 1.906-.446a4.75 4.75 0 0 0 2.075-2.075c.237-.465.374-1.035.446-1.906.071-.88.072-1.998.072-3.551v-5.2c.456.342.83.785 1.091 1.298"/></svg>
